X: 8
M:2/4
L:1/16
K:G
uD2|\
|:zuD|\
(B/d/) z2 e dBAG | (B/d/) z2 d .b2.g2 | (B/d/) z2 e dBAG | \
(B/d/) z2 e dBAG | (B/d/) z2 d .b2.g2 | (B/d/) z2 e dBAG | \


